src/icons/action.svg

<svg viewBox="0 0 40 40" fill="none" xmlns="http://www.w3.org/2000/svg">
<path d="M24 30.036C24 30.2506 24.0691 30.4595 24.197 30.6318C24.3248 30.8042 24.5048 30.9308 24.7102 30.993C24.9156 31.0552 25.1356 31.0496 25.3376 30.9772C25.5396 30.9047 25.7129 30.7692 25.832 30.5907L33.6306 18.8933C33.731 18.7427 33.7887 18.5677 33.7974 18.3869C33.8061 18.2062 33.7656 18.0264 33.6802 17.8668C33.5948 17.7072 33.4677 17.5738 33.3125 17.4808C33.1572 17.3878 32.9796 17.3387 32.7986 17.3387H26.6653V9.96934C26.6649 9.7551 26.5956 9.54668 26.4678 9.37476C26.34 9.20284 26.1603 9.07652 25.9553 9.0144C25.7502 8.95228 25.5307 8.95764 25.3289 9.0297C25.1272 9.10177 24.9539 9.23671 24.8346 9.41467L17.036 21.112C16.9356 21.2626 16.8779 21.4376 16.8692 21.6184C16.8605 21.7992 16.901 21.9789 16.9864 22.1385C17.0718 22.2981 17.1989 22.4315 17.3541 22.5245C17.5094 22.6175 17.687 22.6667 17.868 22.6667H24.0013L24 30.036Z" fill="currentColor"/>
<path opacity="0.44" d="M9.99998 30.6667C9.46955 30.6667 8.96084 30.456 8.58577 30.081C8.21069 29.7059 7.99998 29.1972 7.99998 28.6667C7.99998 28.1363 8.21069 27.6276 8.58577 27.2525C8.96084 26.8775 9.46955 26.6667 9.99998 26.6667H16.6666C17.1971 26.6667 17.7058 26.8775 18.0809 27.2525C18.4559 27.6276 18.6666 28.1363 18.6666 28.6667C18.6666 29.1972 18.4559 29.7059 18.0809 30.081C17.7058 30.456 17.1971 30.6667 16.6666 30.6667H9.99998ZM7.33331 22.6667C6.80288 22.6667 6.29417 22.456 5.9191 22.081C5.54403 21.7059 5.33331 21.1972 5.33331 20.6667C5.33331 20.1363 5.54403 19.6276 5.9191 19.2525C6.29417 18.8775 6.80288 18.6667 7.33331 18.6667H12.6666C13.1971 18.6667 13.7058 18.8775 14.0809 19.2525C14.4559 19.6276 14.6666 20.1363 14.6666 20.6667C14.6666 21.1972 14.4559 21.7059 14.0809 22.081C13.7058 22.456 13.1971 22.6667 12.6666 22.6667H7.33331ZM9.99998 14.6667C9.46955 14.6667 8.96084 14.456 8.58577 14.081C8.21069 13.7059 7.99998 13.1972 7.99998 12.6667C7.99998 12.1363 8.21069 11.6276 8.58577 11.2525C8.96084 10.8775 9.46955 10.6667 9.99998 10.6667H16.6666C17.1971 10.6667 17.7058 10.8775 18.0809 11.2525C18.4559 11.6276 18.6666 12.1363 18.6666 12.6667C18.6666 13.1972 18.4559 13.7059 18.0809 14.081C17.7058 14.456 17.1971 14.6667 16.6666 14.6667H9.99998Z" fill="currentColor"/>
</svg>

<svg viewBox="0 0 40 40" fill="none" xmlns="http://www.w3.org/2000/svg"><path d="M24 30.036a1 1 0 0 0 1.832.555l7.799-11.698a1 1 0 0 0-.832-1.554h-6.134v-7.37a1 1 0 0 0-1.83-.554l-7.799 11.697a1 1 0 0 0 .832 1.555h6.133L24 30.036z" fill="currentColor"/><path opacity=".44" d="M10 30.667a2 2 0 0 1 0-4h6.667a2 2 0 0 1 0 4H10zm-2.667-8a2 2 0 0 1 0-4h5.334a2 2 0 0 1 0 4H7.333zm2.667-8a2 2 0 0 1 0-4h6.667a2 2 0 0 1 0 4H10z" fill="currentColor"/></svg>
